lib/flags/l/TCA.svg

<svg xmlns="http://www.w3.org/2000/svg" fill="none" viewBox="0 0 32 24"><mask id="TCA_svg__a" width="32" height="24" x="0" y="0" mask-type="alpha" maskUnits="userSpaceOnUse"><path fill="#fff" d="M0 0H32V24H0z"/></mask><g mask="url(#TCA_svg__a)"><path fill="#2E42A5" fill-rule="evenodd" d="M0 0V24H32V0H0Z" clip-rule="evenodd"/><mask id="TCA_svg__b" width="32" height="24" x="0" y="0" mask-type="alpha" maskUnits="userSpaceOnUse"><path fill="#fff" fill-rule="evenodd" d="M0 0V24H32V0H0Z" clip-rule="evenodd"/></mask><g mask="url(#TCA_svg__b)"><path fill="#FECA00" fill-rule="evenodd" stroke="#F7FCFF" stroke-width=".5" d="M21.0466 10.0327C21.0466 10.0327 21.9327 21.964 25.9286 21.964C29.9245 21.964 30.9073 10.0327 30.9073 10.0327H21.0466Z" clip-rule="evenodd"/><path fill="#CF6900" fill-rule="evenodd" d="M25.9111 10.6218L26.0575 10.4566L26.7514 10.8986C26.8519 10.7424 27.031 10.6697 27.2815 10.6817L27.0284 10.2962L27.2346 10.1864L27.715 10.7648C27.7307 10.7695 27.7465 10.7745 27.7625 10.7797L27.6407 10.0281L27.8822 10L28.04 10.9739C28.0439 10.9737 28.0477 10.9736 28.0515 10.9736C28.1195 10.9736 28.1961 11.0064 28.2748 11.0585L28.4463 10L28.6878 10.0281L28.5661 10.7797C28.5821 10.7745 28.5979 10.7695 28.6135 10.7648L29.094 10.1864L29.3001 10.2962L29.047 10.6817C29.2976 10.6697 29.4766 10.7424 29.5771 10.8986L30.271 10.4566L30.4174 10.6218L29.6561 11.1069C29.6665 11.1617 29.6717 11.2218 29.6717 11.2871V11.3996L30.7225 11.1693L30.8 11.3647L29.6717 11.7645V11.901L30.7414 11.8143L30.7736 12.0191L29.6717 12.1794V12.4153L30.7763 12.5977L30.7318 12.801L29.6717 12.6425V14.9406H29.5092V12.6182L28.7981 12.5119C28.7184 13.0742 28.6286 13.7822 28.6412 14.0381C28.6536 14.291 28.8424 14.3994 28.975 14.4755C29.0781 14.5347 29.1471 14.5743 29.0726 14.6472C28.9024 14.8139 28.477 14.9736 28.0515 14.9736C27.6259 14.9736 27.2062 14.8139 27.1152 14.6472C27.099 14.6175 27.1011 14.6199 27.1157 14.6366C27.1828 14.7136 27.5148 15.0944 27.5408 14.0381C27.555 13.4586 27.4699 12.9354 27.3722 12.5356L26.8194 12.6182V14.9406H26.6568V12.6425L25.5967 12.801L25.5522 12.5977L26.6568 12.4153V12.1794L25.5549 12.0191L25.5871 11.8143L26.6568 11.901V11.7645L25.5286 11.3647L25.6061 11.1693L26.6568 11.3996V11.2871C26.6568 11.2218 26.6621 11.1617 26.6724 11.1069L25.9111 10.6218ZM27.3018 12.2733C27.3051 12.2844 27.3083 12.2957 27.3116 12.3071L26.8194 12.3884V12.2031L27.3018 12.2733ZM27.312 11.5143C27.3046 11.5225 27.2974 11.5305 27.2903 11.5384L26.8194 11.4352V11.2871C26.8194 11.2575 26.8205 11.2294 26.8228 11.2026L27.312 11.5143ZM27.6251 11.2048C27.5704 11.2519 27.5165 11.3026 27.4654 11.3535L26.8839 10.983C26.9655 10.8412 27.1264 10.7896 27.3768 10.8267L27.6251 11.2048ZM28.6944 11.461L29.4447 10.983C29.363 10.8412 29.2021 10.7896 28.9518 10.8267L28.6037 11.3568C28.6355 11.3919 28.6659 11.427 28.6944 11.461ZM28.9474 11.5583L29.5058 11.2026C29.5081 11.2294 29.5092 11.2575 29.5092 11.2871V11.4352L28.9474 11.5583ZM29.1723 11.9414L29.5092 11.8221V11.9141L29.1723 11.9414ZM28.9128 12.2899L29.5092 12.2031V12.3884L28.9128 12.2899ZM26.8194 11.8221V11.9141L27.1562 11.9414L26.8194 11.8221Z" clip-rule="evenodd"/><path fill="#00A727" fill-rule="evenodd" d="M24.8779 15.8428C24.8779 15.8428 23.5642 18.0429 23.5642 19.3764C23.5642 19.3764 24.4594 20.0864 25.9991 20.0864C27.5388 20.0864 28.331 19.3764 28.331 19.3764C27.8975 17.7956 27.1596 15.8428 27.1596 15.8428H24.8779Z" clip-rule="evenodd"/><path fill="#E31D1C" fill-rule="evenodd" d="M24.9419 15.2352C24.9419 14.6293 25.4331 14.1382 26.0389 14.1382C26.6448 14.1382 27.136 14.6293 27.136 15.2352V15.9857H24.9419V15.2352Z" clip-rule="evenodd"/><path fill="#FF927F" fill-rule="evenodd" d="M21.519 12.8336C21.519 12.8336 23.2529 13.1908 23.2529 13.754C23.2529 14.3173 23.9511 14.5204 24.1226 14.3681C24.2941 14.2158 25.5023 14.1093 25.5023 13.3752C25.5023 12.641 25.6032 12.4411 25.3097 11.9749C25.0162 11.5087 24.4043 9.93277 24.2634 10.5642C24.1226 11.1956 23.9106 11.6633 23.519 11.287C23.1275 10.9106 22.6245 10.1138 22.448 10.5642C22.2715 11.0146 23.0075 11.4667 22.448 11.4667C21.8885 11.4667 22.2828 11.4962 22.2828 11.8776C22.2828 12.259 22.3492 12.6184 21.9341 12.6184C21.519 12.6184 21.519 12.8336 21.519 12.8336Z" clip-rule="evenodd"/><path fill="#2B409A" d="M0 0H18V14H0z"/><mask id="TCA_svg__c" width="18" height="14" x="0" y="0" mask-type="alpha" maskUnits="userSpaceOnUse"><path fill="#fff" d="M0 0H18V14H0z"/></mask><g mask="url(#TCA_svg__c)"><path fill="#F7FCFF" d="M-2.00415 12.9999L1.9568 14.7371L18.09 1.88878L20.1793 -0.692749L15.9436 -1.27337L9.3633 4.26332L4.06679 7.99375L-2.00415 12.9999Z"/><path fill="#F50100" d="M-1.46191 14.217L0.556007 15.2251L19.429 -0.932617H16.5956L-1.46191 14.217Z"/><path fill="#F7FCFF" d="M20.0044 12.9999L16.0434 14.7371L-0.0897522 1.88878L-2.17906 -0.692749L2.0566 -1.27337L8.63695 4.26332L13.9335 7.99375L20.0044 12.9999Z"/><path fill="#F50100" d="M19.8691 13.8732L17.8512 14.8813L9.81489 7.96339L7.43229 7.19046L-2.3802 -0.684069H0.453194L10.2602 7.00356L12.8651 7.93038L19.8691 13.8732Z"/><mask id="TCA_svg__d" width="22" height="18" x="-2" y="-2" fill="#000" maskUnits="userSpaceOnUse"><path fill="#fff" d="M-2-2H20V16H-2z"/><path fill-rule="evenodd" d="M9.98451 0H7.98451V6H0V8H7.98451V14H9.98451V8H18V6H9.98451V0Z" clip-rule="evenodd"/></mask><path fill="#F50100" fill-rule="evenodd" d="M9.98451 0H7.98451V6H0V8H7.98451V14H9.98451V8H18V6H9.98451V0Z" clip-rule="evenodd"/><path fill="#F7FCFF" d="M7.98451 0V-1.5H6.48451V0H7.98451ZM9.98451 0H11.4845V-1.5H9.98451V0ZM7.98451 6V7.5H9.48451V6H7.98451ZM0 6V4.5H-1.5V6H0ZM0 8H-1.5V9.5H0V8ZM7.98451 8H9.48451V6.5H7.98451V8ZM7.98451 14H6.48451V15.5H7.98451V14ZM9.98451 14V15.5H11.4845V14H9.98451ZM9.98451 8V6.5H8.48451V8H9.98451ZM18 8V9.5H19.5V8H18ZM18 6H19.5V4.5H18V6ZM9.98451 6H8.48451V7.5H9.98451V6ZM7.98451 1.5H9.98451V-1.5H7.98451V1.5ZM9.48451 6V0H6.48451V6H9.48451ZM0 7.5H7.98451V4.5H0V7.5ZM1.5 8V6H-1.5V8H1.5ZM7.98451 6.5H0V9.5H7.98451V6.5ZM9.48451 14V8H6.48451V14H9.48451ZM9.98451 12.5H7.98451V15.5H9.98451V12.5ZM8.48451 8V14H11.4845V8H8.48451ZM18 6.5H9.98451V9.5H18V6.5ZM16.5 6V8H19.5V6H16.5ZM9.98451 7.5H18V4.5H9.98451V7.5ZM8.48451 0V6H11.4845V0H8.48451Z" mask="url(#TCA_svg__d)"/></g></g></g></svg>

<svg xmlns="http://www.w3.org/2000/svg" fill="none" viewBox="0 0 32 24"><mask id="TCA_svg__a" width="32" height="24" x="0" y="0" maskUnits="userSpaceOnUse"><path fill="#fff" d="M0 0h32v24H0z"/></mask><g mask="url(#TCA_svg__a)"><path fill="#2E42A5" fill-rule="evenodd" d="M0 0v24h32V0H0z" clip-rule="evenodd"/><mask id="TCA_svg__b" width="32" height="24" x="0" y="0" maskUnits="userSpaceOnUse"><path fill="#fff" fill-rule="evenodd" d="M0 0v24h32V0H0z" clip-rule="evenodd"/></mask><g mask="url(#TCA_svg__b)"><path fill="#FECA00" fill-rule="evenodd" stroke="#F7FCFF" stroke-width=".5" d="M21.047 10.033s.886 11.931 4.882 11.931c3.995 0 4.978-11.931 4.978-11.931h-9.86z" clip-rule="evenodd"/><path fill="#CF6900" fill-rule="evenodd" d="M25.911 10.622l.147-.165.694.442c.1-.157.28-.23.53-.217l-.253-.386.206-.11.48.579.048.015-.122-.752.241-.028.158.974h.012a.43.43 0 01.223.085L28.447 10l.241.028-.122.752.048-.015.48-.579.206.11-.253.386c.25-.012.43.06.53.217l.694-.442.147.165-.762.485c.01.055.016.115.016.18v.113l1.05-.23.078.195-1.128.4v.136l1.07-.087.032.205-1.102.16v.236l1.104.183-.044.203-1.06-.159v2.299h-.163v-2.323l-.71-.106c-.08.562-.17 1.27-.158 1.526.013.253.202.361.334.438.103.059.172.098.098.171-.17.167-.596.327-1.021.327-.426 0-.846-.16-.937-.327-.016-.03-.014-.027 0-.01.068.077.4.457.426-.599a5.787 5.787 0 00-.169-1.502l-.552.082v2.323h-.163v-2.299l-1.06.159-.045-.203 1.105-.183v-.236l-1.102-.16.032-.205 1.07.087v-.136l-1.128-.4.077-.196 1.051.23v-.112a.92.92 0 01.016-.18l-.762-.485zm1.39 1.651l.01.034-.491.081v-.185l.482.07zm.011-.759l-.022.024-.47-.103v-.148c0-.03 0-.058.003-.084l.49.311zm.313-.31a3.033 3.033 0 00-.16.15l-.581-.371c.082-.142.242-.193.493-.156l.248.378zm1.07.257l.75-.478c-.082-.142-.243-.193-.493-.156l-.348.53a3.6 3.6 0 01.09.104zm.253.097l.558-.355a.989.989 0 01.003.084v.148l-.561.123zm.224.383l.337-.119v.092l-.337.027zm-.259.349l.596-.087v.185l-.596-.098zm-2.093-.468v.092l.336.027-.336-.119z" clip-rule="evenodd"/><path fill="#00A727" fill-rule="evenodd" d="M24.878 15.843s-1.314 2.2-1.314 3.533c0 0 .895.71 2.435.71s2.332-.71 2.332-.71c-.433-1.58-1.171-3.533-1.171-3.533h-2.282z" clip-rule="evenodd"/><path fill="#E31D1C" fill-rule="evenodd" d="M24.942 15.235a1.097 1.097 0 012.194 0v.75h-2.194v-.75z" clip-rule="evenodd"/><path fill="#FF927F" fill-rule="evenodd" d="M21.52 12.834s1.733.357 1.733.92c0 .563.698.766.87.614.171-.152 1.38-.259 1.38-.993s.1-.934-.193-1.4c-.294-.466-.906-2.042-1.046-1.41-.141.63-.353 1.098-.745.722-.391-.377-.894-1.173-1.07-.723-.177.45.559.903 0 .903-.56 0-.166.03-.166.41 0 .382.066.741-.349.741s-.415.216-.415.216z" clip-rule="evenodd"/><path fill="#2B409A" d="M0 0h18v14H0z"/><mask id="TCA_svg__c" width="18" height="14" x="0" y="0" maskUnits="userSpaceOnUse"><path fill="#fff" d="M0 0h18v14H0z"/></mask><g mask="url(#TCA_svg__c)"><path fill="#F7FCFF" d="M-2.004 13l3.96 1.737L18.09 1.889l2.09-2.582-4.236-.58-6.58 5.536-5.297 3.73L-2.004 13z"/><path fill="#F50100" d="M-1.462 14.217l2.018 1.008L19.429-.933h-2.833l-18.058 15.15z"/><path fill="#F7FCFF" d="M20.004 13l-3.96 1.737L-.09 1.889-2.18-.693l4.236-.58 6.58 5.536 5.297 3.73L20.004 13z"/><path fill="#F50100" d="M19.87 13.873l-2.019 1.009-8.036-6.918-2.383-.773L-2.38-.684H.453l9.807 7.688 2.605.927 7.004 5.942z"/><mask id="TCA_svg__d" width="22" height="18" x="-2" y="-2" fill="#000" maskUnits="userSpaceOnUse"><path fill="#fff" d="M-2-2h22v18H-2z"/><path fill-rule="evenodd" d="M9.985 0h-2v6H0v2h7.985v6h2V8H18V6H9.985V0z" clip-rule="evenodd"/></mask><path fill="#F50100" fill-rule="evenodd" d="M9.985 0h-2v6H0v2h7.985v6h2V8H18V6H9.985V0z" clip-rule="evenodd"/><path fill="#F7FCFF" d="M7.985 0v-1.5h-1.5V0h1.5zm2 0h1.5v-1.5h-1.5V0zm-2 6v1.5h1.5V6h-1.5zM0 6V4.5h-1.5V6H0zm0 2h-1.5v1.5H0V8zm7.985 0h1.5V6.5h-1.5V8zm0 6h-1.5v1.5h1.5V14zm2 0v1.5h1.5V14h-1.5zm0-6V6.5h-1.5V8h1.5zM18 8v1.5h1.5V8H18zm0-2h1.5V4.5H18V6zM9.985 6h-1.5v1.5h1.5V6zm-2-4.5h2v-3h-2v3zm1.5 4.5V0h-3v6h3zM0 7.5h7.985v-3H0v3zm1.5.5V6h-3v2h3zm6.485-1.5H0v3h7.985v-3zm1.5 7.5V8h-3v6h3zm.5-1.5h-2v3h2v-3zM8.485 8v6h3V8h-3zM18 6.5H9.985v3H18v-3zM16.5 6v2h3V6h-3zM9.985 7.5H18v-3H9.985v3zM8.485 0v6h3V0h-3z" mask="url(#TCA_svg__d)"/></g></g></g></svg>
